X:1
T:Heavy-Hipted Woman
M:2/4
L:1/8
K:Bb
 z2 dd| B2 G2| GD FD| GD B, G,| B,/2 B,3/2 G,/2 G,3/2| B,2 B2| G2 B,/2 B,3/2|\
 G,2 G,/2 G,3/2| B,2 G,2| B,B, DD| B,B, G, G,| B,/2 B,3/2 G,/2 G,3/2|\
 B,2 D2| B,2 B,/2 B,3/2| G,2 z2|
